X:2
T:Need More Women Harmony
N:So named because Walter once observed this at a dance in San Antonio
C:c. 1998 Jim Thompson
R:Reel
E:16
M:C
K:DDor
|:aga2 aba2|c'2a2 bc'd'b|c'2g2 c4|a4 e2e2|
|aga2 aba2|c'2a2 fgf2|f2c2g2d2|1e4 efga:|2e8||
K:D
E:32
|:d8|e4f4|d8|e4c4|
|d8|e4f4|a4g4|f8:|
